X: 3658
T:Paddy Fahy's No.2
S:Fisherstreet
M:6/8
L:1/8
K:G
GA^A ~B2d|cBG ABc|dBd cAc|BGd AFD|!
GA^A ~B2d|cBG ABc|dfa fdc|1 BGF ~G2D:|2 BGF GBd !
|:~g2g bag|fga gfd|~a2g bag|fga gef|!
gdB GBd|cBG ABc|dfa fdc|1 BGF GBd:|2 BGF ~G2D||!
